src/assets/filled/BoxTick.svg

<svg width="24" height="24" viewBox="0 0 24 24"  xmlns="http://www.w3.org/2000/svg">
<path d="M17.6 5.30979L11.95 2.26979C11.35 1.94979 10.64 1.94979 10.04 2.26979L4.39998 5.30979C3.98998 5.53979 3.72998 5.97978 3.72998 6.45978C3.72998 6.94979 3.97998 7.38979 4.39998 7.60979L10.05 10.6498C10.35 10.8098 10.68 10.8898 11 10.8898C11.32 10.8898 11.66 10.8098 11.95 10.6498L17.6 7.60979C18.01 7.38979 18.27 6.94979 18.27 6.45978C18.27 5.97978 18.01 5.53979 17.6 5.30979Z" />
<path d="M9.12 11.7096L3.87 9.0896C3.46 8.8796 3 8.9096 2.61 9.1396C2.23 9.3796 2 9.7896 2 10.2396V15.1996C2 16.0596 2.48 16.8296 3.25 17.2196L8.5 19.8396C8.68 19.9296 8.88 19.9796 9.08 19.9796C9.31 19.9796 9.55 19.9096 9.76 19.7896C10.14 19.5496 10.37 19.1396 10.37 18.6896V13.7296C10.36 12.8696 9.88 12.0996 9.12 11.7096Z" />
<path d="M19.9999 10.2396V12.6996C19.5199 12.5596 19.0099 12.4996 18.4999 12.4996C17.1399 12.4996 15.8099 12.9696 14.7599 13.8096C13.3199 14.9396 12.4999 16.6496 12.4999 18.4996C12.4999 18.9896 12.5599 19.4796 12.6899 19.9496C12.5399 19.9296 12.3899 19.8696 12.2499 19.7796C11.8699 19.5496 11.6399 19.1396 11.6399 18.6896V13.7296C11.6399 12.8696 12.1199 12.0996 12.8799 11.7096L18.1299 9.0896C18.5399 8.8796 18.9999 8.9096 19.3899 9.1396C19.7699 9.3796 19.9999 9.7896 19.9999 10.2396Z" />
<path d="M21.98 15.67C21.16 14.66 19.91 14.02 18.5 14.02C17.44 14.02 16.46 14.39 15.69 15.01C14.65 15.83 14 17.1 14 18.52C14 19.36 14.24 20.16 14.65 20.84C14.92 21.29 15.26 21.68 15.66 22H15.67C16.44 22.64 17.43 23.02 18.5 23.02C19.64 23.02 20.67 22.6 21.46 21.9C21.81 21.6 22.11 21.24 22.35 20.84C22.76 20.16 23 19.36 23 18.52C23 17.44 22.62 16.44 21.98 15.67ZM20.76 17.96L18.36 20.18C18.22 20.31 18.03 20.38 17.85 20.38C17.66 20.38 17.47 20.31 17.32 20.16L16.21 19.05C15.92 18.76 15.92 18.28 16.21 17.99C16.5 17.7 16.98 17.7 17.27 17.99L17.87 18.59L19.74 16.86C20.04 16.58 20.52 16.6 20.8 16.9C21.09 17.21 21.07 17.68 20.76 17.96Z" />
</svg>

<?xml version="1.0" encoding="UTF-8"?>
<svg width="24" height="24" viewBox="0 0 24 24" xmlns="http://www.w3.org/2000/svg">
 <path d="m17.6 5.3098-5.65-3.04c-0.6-0.32-1.31-0.32-1.91 0l-5.64 3.04c-0.41 0.23-0.67 0.66999-0.67 1.15 0 0.49001 0.25 0.93001 0.67 1.15l5.65 3.04c0.3 0.16 0.63 0.24 0.95 0.24s0.66-0.08 0.95-0.24l5.65-3.04c0.41-0.22 0.67-0.66 0.67-1.15 0-0.48-0.26-0.91999-0.67-1.15z"/>
 <path d="m9.12 11.71-5.25-2.62c-0.41-0.21-0.87-0.18-1.26 0.05-0.38 0.24-0.61 0.65-0.61 1.1v4.96c0 0.86 0.48 1.63 1.25 2.02l5.25 2.62c0.18 0.09 0.38 0.14 0.58 0.14 0.23 0 0.47-0.07 0.68-0.19 0.38-0.24 0.61-0.65 0.61-1.1v-4.96c-0.01-0.86-0.49-1.63-1.25-2.02z"/>
 <path d="m20 10.24v2.46c-0.48-0.14-0.99-0.2-1.5-0.2-1.36 0-2.69 0.47-3.74 1.31-1.44 1.13-2.26 2.84-2.26 4.69 0 0.49 0.06 0.98 0.19 1.45-0.15-0.02-0.3-0.08-0.44-0.17-0.38-0.23-0.61-0.64-0.61-1.09v-4.96c0-0.86 0.48-1.63 1.24-2.02l5.25-2.62c0.41-0.21 0.87-0.18 1.26 0.05 0.38 0.24 0.61 0.65 0.61 1.1z"/>
 <path d="m21.98 15.67c-0.82-1.01-2.07-1.65-3.48-1.65-1.06 0-2.04 0.37-2.81 0.99-1.04 0.82-1.69 2.09-1.69 3.51 0 0.84 0.24 1.64 0.65 2.32 0.27 0.45 0.61 0.84 1.01 1.16h0.01c0.77 0.64 1.76 1.02 2.83 1.02 1.14 0 2.17-0.42 2.96-1.12 0.35-0.3 0.65-0.66 0.89-1.06 0.41-0.68 0.65-1.48 0.65-2.32 0-1.08-0.38-2.08-1.02-2.85zm-1.22 2.29-2.4 2.22c-0.14 0.13-0.33 0.2-0.51 0.2-0.19 0-0.38-0.07-0.53-0.22l-1.11-1.11c-0.29-0.29-0.29-0.77 0-1.06s0.77-0.29 1.06 0l0.6 0.6 1.87-1.73c0.3-0.28 0.78-0.26 1.06 0.04 0.29 0.31 0.27 0.78-0.04 1.06z"/>
</svg>
